svg/UnitedNationsOCHA-Humanitarian/clusters_shelter_icon_box.svg

<svg xmlns="http://www.w3.org/2000/svg" viewBox="0 0 32 32" enable-background="new 0 0 32 32"><path fill="#407cca" d="m25.6 0h-19.2c-3.52 0-6.4 2.88-6.4 6.4v19.2c0 3.522 2.88 6.4 6.4 6.4h19.2c3.521 0 6.4-2.878 6.4-6.4v-19.2c0-3.52-2.88-6.4-6.4-6.4m1.277 14.836l-1.647-1.079v12.98h-18.454v-12.98l-1.65 1.079-1.125-1.718 12-7.854 11.999 7.854-1.124 1.718m-10.874-7.119l7.523 4.925h-15.05l7.524-4.925"/></svg>

<?xml version="1.0" encoding="utf-8"?>
<!-- Generator: Adobe Illustrator 16.0.3, SVG Export Plug-In . SVG Version: 6.00 Build 0)  -->
<!DOCTYPE svg PUBLIC "-//W3C//DTD SVG 1.1//EN" "http://www.w3.org/Graphics/SVG/1.1/DTD/svg11.dtd">
<svg version="1.1" id="Layer_1" xmlns="http://www.w3.org/2000/svg" xmlns:xlink="http://www.w3.org/1999/xlink" x="0px" y="0px"
	 width="32px" height="32px" viewBox="0 0 32 32" enable-background="new 0 0 32 32" xml:space="preserve">
<path fill="#407CCA" d="M25.6,0H6.4C2.88,0,0,2.88,0,6.4v19.2C0,29.122,2.88,32,6.4,32h19.2c3.521,0,6.4-2.878,6.4-6.4V6.4
	C32,2.88,29.12,0,25.6,0z M26.877,14.836l-1.647-1.079v12.98H6.776v-12.98l-1.65,1.079l-1.125-1.718l12.001-7.854l11.999,7.854
	L26.877,14.836z M16.003,7.717l7.523,4.925H8.479L16.003,7.717z"/>
</svg>
